X:362
T:Paddy’s Own Sweet Little Island of Green. RH.362
T:Paddy’s Green Island,aka. RH.362
R:air
S:Rev.R.Harrison’s MS,c1815,Cumbria
O:England
A:Temple Sowerby,Cumbria
Z:vmp.Simon Wilson. Review PJH, 2008.
M:6/8
L:1/8
Q:3/8=110
K:D
a|fdd {f}ecc|BdB AFG|Add fdd|cee e2a/g/|\
fdd {f}edd|BdB AFG|Aaf ede|fdd d2:|!
|:A|dfa af”sic”A|dfa afd|gab afd|ceg g2e|\
fdd {f}edd|BdB AFG|Aaf ede|fdd d2|]

